X:2620
T:Captain Horne
G:pipe strathspey
M:C
L:1/8
K:D
% major/mixolydian hexatonic, D-final in the C-gap hexatonic pitch set
e|f>AA2  B<Gg2 |f>AA2  Bd|
  f>AA2  B<Gg2 |f<ae>d B<dd :|
e|f2 f>d f2 f<a|f2 f>d e2 f<a|
  f2 f>d e>dg>e|a>fe>d B<dd :|
